X: 21
T:Ian Duncan
% Nottingham Music Database
S:Ronald Cooper via Rosa M, via EF
M:4/4
L:1/4
K:D
P:A
A/2G/2|"D"G/2F/2E/2D/2 "A7"D/2E/2F/2G/2|"D"A/2D/2F/2A/2 "G"d/2c/2d/2e/2|\
"D"f/2e/2d/2A/2 B/2d/2A/2F/2|
"Em"BE "A7"EA/2G/2|"D"G/2F/2E/2D/2 "A7"D/2E/2F/2G/2|\
"D"A/2D/2F/2A/2 "G"d/2c/2d/2e/2|1
"D"f/2e/2d/2A/2 "A7"B/2d/2A/2G/2|"D"F"G"D "D"D:|2"D"fe/2f/2 "A7"g/2e/2c/2e/2|\
"D"df d||
P:B
F/2G/2|"D"A/2B/2A/2F/2 "A7"dA/2d/2|"D7"f/2d/2f/2a/2 "G"g/2f/2e/2g/2|\
"D"f/2e/2d/2A/2 B/2d/2A/2F/2|"Em"BE "A7"EF/2G/2|
"D"A/2B/2A/2F/2 "A7"dA/2d/2|"D7"f/2d/2f/2a/2 "G"g/2f/2e/2g/2|\
"D"f/2e/2d/2A/2 "A7"B/2d/2A/2G/2|"D"F"G"D "D"DF/2G/2|
"D"A/2B/2A/2F/2 "A7"dA/2d/2|"D7"f/2d/2f/2a/2 "G"g/2f/2e/2g/2|\
"D"f/2e/2d/2A/2 B/2d/2A/2F/2|"Em"BE "A7"EA/2G/2|
"D"G/2F/2E/2D/2 "A7"D/2E/2F/2G/2|"D"A/2D/2F/2A/2 "G"d/2c/2d/2e/2|\
"D"fe/2f/2 "A7"g/2e/2c/2e/2|"D"df d||<end>
<start>
